X:24
T:Salvi glori
R:
O:Alsace - Elsass
A:Ribeauvill
S:
B:Chansons populaires de l'Alsace
Z:transcription (partition) : <anamnese@laposte.net>
N:Weckerlin II - p. 96
M:2/4
L:1/8
Q:1/4=130
K:F
c2 A2 | c2 A2 | c c A2 | c c A2 | c>>c c d | c2 A z/ B/ |
c2 A B | c2 A F | c c c d | c2 A z/ B/ | c>B A B | c>B A F |
F G A B | c c/ B/ A c | c2 A c | c2 A F | c c c d | c2 A F |
c2 z F | c2 z c | c c c d | c2 z F | c2 z F | c2 z F | c c c d | Hc2 z2 ||
W:Salvi, glori, Glck in's Hs, Unglck drs, Sankt Johannes stiere,
W:Sankt Mart, sankt Mart, Merkenne nimm lang wart, sankt Olwra
W:sankt Olwra, Das Schittel kummt vo ow hera, /.../
